X: 14356
T: Gallowglass, The
R: jig
M: 6/8
K: Adorian
B|:cBA eBd|cAA A2B|cBA efg|dBG GAB|
cBA eBd|cea e2d|cBA GAB|1 cAA A2B:|2 cAA Ace||
a3 efd|cAA A2B|cBA efg|dBG G2g|
a3 efd|cea e2d|cBA GAB|cAA Ace|
a3 efd|cAA A2B|cBA efg|dBG G2g|
aeg fdB|ecA BGE|ABc dBe|cAA A2B||

